Numix-Light/16/status/indicator-keyboard-Hr.svg

<?xml version="1.0" encoding="UTF-8" standalone="no"?>
<svg
   xmlns:dc="http://purl.org/dc/elements/1.1/"
   xmlns:cc="http://creativecommons.org/ns#"
   xmlns:rdf="http://www.w3.org/1999/02/22-rdf-syntax-ns#"
   xmlns:svg="http://www.w3.org/2000/svg"
   xmlns="http://www.w3.org/2000/svg"
   xmlns:sodipodi="http://sodipodi.sourceforge.net/DTD/sodipodi-0.dtd"
   xmlns:inkscape="http://www.inkscape.org/namespaces/inkscape"
   viewBox="0 0 16 16"
   id="svg2"
   version="1.1"
   inkscape:version="0.91 r13725"
   sodipodi:docname="indicator-keyboard-Hr.svg">
  <metadata
     id="metadata13">
    <rdf:RDF>
      <cc:Work
         rdf:about="">
        <dc:format>image/svg+xml</dc:format>
        <dc:type
           rdf:resource="http://purl.org/dc/dcmitype/StillImage" />
      </cc:Work>
    </rdf:RDF>
  </metadata>
  <defs
     id="defs11" />
  <sodipodi:namedview
     pagecolor="#ffffff"
     bordercolor="#666666"
     borderopacity="1"
     objecttolerance="10"
     gridtolerance="10"
     guidetolerance="10"
     inkscape:pageopacity="0"
     inkscape:pageshadow="2"
     inkscape:window-width="640"
     inkscape:window-height="480"
     id="namedview9"
     showgrid="false"
     inkscape:zoom="14.75"
     inkscape:cx="8"
     inkscape:cy="8"
     inkscape:window-x="65"
     inkscape:window-y="24"
     inkscape:window-maximized="0"
     inkscape:current-layer="svg2" />
  <path
     style="fill:#353535;fill-opacity:1"
     d="M 1.5996094 0 C 0.71320937 2.9605947e-16 0 0.71320937 0 1.5996094 L 0 14.400391 C 2.9605947e-16 15.286791 0.71320937 16 1.5996094 16 L 14.400391 16 C 15.286791 16 16 15.286791 16 14.400391 L 16 1.5996094 C 16 0.71320937 15.286791 0 14.400391 0 L 1.5996094 0 z M 3.6640625 4.8808594 L 4.2773438 4.8808594 L 4.2773438 7.5898438 L 7.6601562 7.5898438 L 7.6601562 4.8808594 L 8.2734375 4.8808594 L 8.2734375 11.119141 L 7.6601562 11.119141 L 7.6601562 8.1210938 L 4.2773438 8.1210938 L 4.2773438 11.119141 L 3.6640625 11.119141 L 3.6640625 4.8808594 z M 11.435547 6.375 C 11.627547 6.375 11.806609 6.3899219 11.974609 6.4199219 C 12.148609 6.4499219 12.269937 6.4797656 12.335938 6.5097656 L 12.21875 7.0136719 C 12.17075 6.9896719 12.071875 6.9673594 11.921875 6.9433594 C 11.777875 6.9133594 11.585703 6.8984375 11.345703 6.8984375 C 11.093703 6.8984375 10.888422 6.9151719 10.732422 6.9511719 C 10.582422 6.9871719 10.483547 7.0170156 10.435547 7.0410156 L 10.435547 11.119141 L 9.8515625 11.119141 L 9.8515625 6.6816406 C 10.001562 6.6156406 10.208656 6.550375 10.472656 6.484375 C 10.736656 6.412375 11.057547 6.375 11.435547 6.375 z "
     id="path4" />
</svg>

<svg xmlns="http://www.w3.org/2000/svg" viewBox="0 0 16 16">
 <path d="m 1.6 0 c -0.886 0 -1.6 0.713 -1.6 1.6 l 0 12.801 c 0 0.886 0.713 1.6 1.6 1.6 l 12.801 0 c 0.886 0 1.6 -0.713 1.6 -1.6 l 0 -12.801 c 0 -0.886 -0.713 -1.6 -1.6 -1.6 l -12.801 0 z m 2.064 4.881 l 0.613 0 l 0 2.709 l 3.383 0 l 0 -2.709 l 0.613 0 l 0 6.238 l -0.613 0 l 0 -2.998 l -3.383 0 l 0 2.998 l -0.613 0 l 0 -6.238 z m 7.771 1.494 c 0.192 0 0.371 0.015 0.539 0.045 c 0.174 0.03 0.295 0.06 0.361 0.09 l -0.117 0.504 c -0.048 -0.024 -0.147 -0.046 -0.297 -0.07 c -0.144 -0.03 -0.336 -0.045 -0.576 -0.045 c -0.252 0 -0.457 0.017 -0.613 0.053 c -0.15 0.036 -0.249 0.066 -0.297 0.09 l 0 4.078 l -0.584 0 l 0 -4.438 c 0.15 -0.066 0.357 -0.131 0.621 -0.197 c 0.264 -0.072 0.585 -0.109 0.963 -0.109 z" style="fill:#353535;fill-opacity:1"/>
</svg>
